src/parts/tops/WinterHat1.svg

<svg>
  <g id="Top">
    <defs>
      <rect
        id="WinterHat1-path3"
        x="0"
        y="0"
        width="264"
        height="280"
      />
      <path
        id="WinterHat1-path1"
        d="M120,54 L20,54 L20,155 C20,160.522847 15.5228475,165 10,165 C4.4771525,165 6.76353751e-16,160.522847 0,155 L0,54 L0,44 C-2.9759565e-15,19.699471 19.699471,4.46393476e-15 44,0 L96,0 C120.300529,-4.46393476e-15 140,19.699471 140,44 L140,54 L140,155 C140,160.522847 135.522847,165 130,165 C124.477153,165 120,160.522847 120,155 L120,54 Z"
      />
      <filter
        id="filter1"
        x="-0.8%"
        y="-2.8%"
        width="101.7%"
        height="111.1%"
        filterUnits="objectBoundingBox"
      >
        <feOffset
          dx="0"
          dy="2"
          in="SourceAlpha"
          result="shadowOffsetOuter1"
        />
        <feColorMatrix
          values="0 0 0 0 0   0 0 0 0 0   0 0 0 0 0  0 0 0 0.1 0"
          type="matrix"
          in="shadowOffsetOuter1"
        />
      </filter>
      <rect
        id="WinterHat1-path2"
        x="74"
        y="50"
        width="118"
        height="36"
        rx="8"
      />
    </defs>
    <mask
      id="WinterHat1-mask1"
      fill="white"
    >
      <use href="#WinterHat1-path3" />
    </mask>
    <g id="Mask" />
    <g
      id="Top/Accessories/Winter-Hat-1"
      transform="translate(-1.000000, 0.000000)"
    >
      <g
        id="hat"
        strokeWidth="1"
        fillRule="evenodd"
        transform="translate(63.000000, 20.000000)"
      >
        <path
          id="inside"
          d="M1,48 L23.6714286,48 L23.6714286,153.664286 C23.6714286,159.924828 18.5962564,165 12.3357143,165 C6.07517216,165 1,159.924828 1,153.664286 L1,48 Z M116.328571,48 L139,48 L139,153.664286 C139,159.924828 133.924828,165 127.664286,165 C121.403744,165 116.328571,159.924828 116.328571,153.664286 L116.328571,48 Z"
          fill="#F4F4F4"
        />
        <mask
          id="WinterHat1-mask2"
          fill="white"
        >
          <use href="#WinterHat1-path1" />
        </mask>
        <use
          class="CustomColor"
          fill="var(--avataaar-top-color)"
          href="#WinterHat1-path1"
        />
      </g>
      <g id="hat-front">
        <use
          fill="black"
          opacity="1"
          filter="url('#WinterHat1-path2')"
          href="#WinterHat1-path2"
        />
        <use
          fill="#F4F4F4"
          fillRule="evenodd"
          href="#WinterHat1-path2"
        />
      </g>
    </g>
  </g>
</svg>

<svg>
  <g id="Top">
    <defs>
      <path id="WinterHat1-path3" d="M0 0h264v280H0z"/>
      <path id="WinterHat1-path1" d="M120 54H20v101c0 5.523-4.477 10-10 10s-10-4.477-10-10V44C0 19.7 19.7 0 44 0h52c24.3 0 44 19.7 44 44v111c0 5.523-4.477 10-10 10s-10-4.477-10-10V54Z"/>
      <filter id="filter1" width="101.7%" height="111.1%" x="-.8%" y="-2.8%" filterUnits="objectBoundingBox">
        <feOffset dy="2" in="SourceAlpha" result="shadowOffsetOuter1"/>
        <feColorMatrix in="shadowOffsetOuter1" values="0 0 0 0 0 0 0 0 0 0 0 0 0 0 0 0 0 0 0.1 0"/>
      </filter>
      <rect id="WinterHat1-path2" width="118" height="36" x="74" y="50" rx="8"/>
    </defs>
    <mask id="WinterHat1-mask1" fill="#fff">
      <use href="#WinterHat1-path3"/>
    </mask>
    <g id="Top/Accessories/Winter-Hat-1" transform="translate(-1)">
      <g id="hat" transform="translate(63 20)">
        <path id="inside" fill="#F4F4F4" d="M1 48h22.671v105.664c0 6.26-5.075 11.336-11.335 11.336C6.076 165 1 159.925 1 153.664V48Zm115.329 0H139v105.664c0 6.26-5.075 11.336-11.336 11.336-6.26 0-11.335-5.075-11.335-11.336V48Z"/>
        <mask id="WinterHat1-mask2" fill="#fff">
          <use href="#WinterHat1-path1"/>
        </mask>
        <use fill="var(--avataaar-top-color)" class="CustomColor" href="#WinterHat1-path1"/>
      </g>
      <g id="hat-front">
        <use filter="url('#WinterHat1-path2')" href="#WinterHat1-path2"/>
        <use fill="#F4F4F4" href="#WinterHat1-path2"/>
      </g>
    </g>
  </g>
</svg>
